X:2005
T:Bielbie's Hornpipe
R:Hornpipe
C:Trad.
O:England, Northumberland
M:4/4
L:1/8
Q:1/4=140
K:G
D2|:"G"G3/2A/ B3/2 c/ d3/2g/ f3/2 a/|g2B2d3z/ B/|"Am"c3/2e/ A3/2 B/ c2c2|"G"B3/2d/ G3/2 A/ B3/2c/ B3/2 A/|
"G"G3/2A/ B3/2 c/ d3/2g/ f3/2 a/|g2B2d3z/ B/|"Am"c3/2e/ A3/2 B/ c3/2B/ c3/2 A/|1 "G"G2B2G2D2:|2 "G"G2B2G3/2A/ B3/2 c/|:
"G"d2b2c2a2|B2g3/2f/ g3/2d/ B3/2 G/|"D"F3/2G/ A3/2 B/ c3/2A/ F3/2 D/|"G"G3/2F/ G3/2 A/ B3/2A/ B3/2 c/|
"G"d2b2c2a2|B2g3/2f/ g3/2d/ B3/2 G/|"D"F3/2G/ A3/2 B/ c3/2A/ F3/2 A/|1 "G"A3/2G/ G3/2 F/ G3/2A/ B3/2 c/:|2 "G"A3/2G/ G3/2 F/ G3|]

